libs/ui/packages/crypto-icons/src/svg/ALGO.svg

<svg width="24" height="24" viewBox="0 0 24 24" fill="none">
<path d="M8.11539 17.9685L9.84264 14.979L11.5684 12L13.2844 9.01049L13.5694 8.53649L13.6946 9.01049L14.2211 10.9785L13.6316 12L11.9059 14.979L10.1899 17.9685H12.2524L13.9789 14.979L14.8736 13.4317L15.2951 14.979L16.0946 17.9685H17.9471L17.1476 14.979L16.3474 12L16.1374 11.2312L17.4214 9.01049H15.5479L15.4841 8.78924L14.8316 6.34724L14.7476 6.03149H12.9476L12.9056 6.09449L11.2211 9.01049L9.49464 12L7.77939 14.979L6.05289 17.9685H8.11539Z" fill="black"/>
</svg>

<svg width="24" height="24" viewBox="0 0 24 24" fill="none"><path fill="#000" d="m8.115 17.969 1.728-2.99L11.568 12l1.716-2.99.285-.474.126.474.526 1.969-.59 1.021-1.725 2.979-1.716 2.99h2.062l1.727-2.99.895-1.547.421 1.547.8 2.99h1.852l-.8-2.99-.8-2.979-.21-.769 1.284-2.22h-1.873l-.064-.222-.652-2.442-.084-.316h-1.8l-.042.063L11.22 9.01 9.495 12l-1.716 2.979-1.726 2.99z"/></svg>
